X: 1
T: Miss Rattray
O: trad Scotland
B: Athole Collection
Z: arr. Terry Traub 6-6-02
R: reel
M: 4/4
K: D
L: 1/8
A |\
"D" d2 AG FDDF | "A"GEEA "D"FDDA |\
"D" d2 AG FDDg | "A"fdec "D"d2 d :| A |\
"D"defg affa | "G"beed "A"cAAc |
"D"defg affa | "A"beec "D"d2 dA |\
"D"defg affa | "G"beed "A"cAAc |\
"G"BGGB "D"FDDg | "A"fdec "D"d2 d |]

